; generated by PrusaSlicer 2.4.2+arm64 on 2022-06-23 at 20:47:38 UTC

; 

; external perimeters extrusion width = 0.45mm
; perimeters extrusion width = 0.45mm
; infill extrusion width = 0.45mm
; solid infill extrusion width = 0.45mm
; top infill extrusion width = 0.40mm
; first layer extrusion width = 0.42mm

; external perimeters extrusion width = 0.45mm
; perimeters extrusion width = 0.45mm
; infill extrusion width = 0.45mm
; solid infill extrusion width = 0.45mm
; top infill extrusion width = 0.40mm
; first layer extrusion width = 0.42mm

; external perimeters extrusion width = 0.45mm
; perimeters extrusion width = 0.45mm
; infill extrusion width = 0.45mm
; solid infill extrusion width = 0.45mm
; top infill extrusion width = 0.40mm
; first layer extrusion width = 0.42mm

; external perimeters extrusion width = 0.45mm
; perimeters extrusion width = 0.45mm
; infill extrusion width = 0.45mm
; solid infill extrusion width = 0.45mm
; top infill extrusion width = 0.40mm
; first layer extrusion width = 0.42mm

; external perimeters extrusion width = 0.45mm
; perimeters extrusion width = 0.45mm
; infill extrusion width = 0.45mm
; solid infill extrusion width = 0.45mm
; top infill extrusion width = 0.40mm
; first layer extrusion width = 0.42mm

; external perimeters extrusion width = 0.45mm
; perimeters extrusion width = 0.45mm
; infill extrusion width = 0.45mm
; solid infill extrusion width = 0.45mm
; top infill extrusion width = 0.40mm
; first layer extrusion width = 0.42mm

; external perimeters extrusion width = 0.45mm
; perimeters extrusion width = 0.45mm
; infill extrusion width = 0.45mm
; solid infill extrusion width = 0.45mm
; top infill extrusion width = 0.40mm
; first layer extrusion width = 0.42mm

; external perimeters extrusion width = 0.45mm
; perimeters extrusion width = 0.45mm
; infill extrusion width = 0.45mm
; solid infill extrusion width = 0.45mm
; top infill extrusion width = 0.40mm
; first layer extrusion width = 0.42mm

; external perimeters extrusion width = 0.45mm
; perimeters extrusion width = 0.45mm
; infill extrusion width = 0.45mm
; solid infill extrusion width = 0.45mm
; top infill extrusion width = 0.40mm
; first layer extrusion width = 0.42mm

; external perimeters extrusion width = 0.45mm
; perimeters extrusion width = 0.45mm
; infill extrusion width = 0.45mm
; solid infill extrusion width = 0.45mm
; top infill extrusion width = 0.40mm
; first layer extrusion width = 0.42mm

; external perimeters extrusion width = 0.45mm
; perimeters extrusion width = 0.45mm
; infill extrusion width = 0.45mm
; solid infill extrusion width = 0.45mm
; top infill extrusion width = 0.40mm
; first layer extrusion width = 0.42mm

M73 P0 R30
M73 Q0 S30
M107
;TYPE:Custom
M862.3 P "MK3" ; printer model check
M862.1 P0.4 ; nozzle diameter check
M115 U3.11.0 ; tell printer latest fw version
G90 ; use absolute coordinates
M83 ; extruder relative mode
M104 S215 ; set extruder temp
M140 S60 ; set bed temp
M190 S60 ; wait for bed temp
M109 S215 ; wait for extruder temp
G28 W ; home all without mesh bed level
G80 ; mesh bed leveling
G1 Y-3.0 F1000.0 ; go outside print area
G92 E0.0
G1 X60.0 E9.0 F1000.0 ; intro line
G1 X100.0 E12.5 F1000.0 ; intro line
G92 E0.0
M221 S95

; Don't change E values below. Excessive value can damage the printer.
M907 E430 ; set extruder motor current
G21 ; set units to millimeters
G90 ; use absolute coordinates
M83 ; use relative distances for extrusion
M900 K0.05 ; Filament gcode LA 1.5
M900 K30 ; Filament gcode LA 1.0
M107
;LAYER_CHANGE
;Z:0.2
;HEIGHT:0.2
;BEFORE_LAYER_CHANGE
G92 E0.0
;0.2


G1 E-.8 F2100
G1 Z.4 F10800
;AFTER_LAYER_CHANGE
;0.2
G1 X93.207 Y76.573
G1 Z.2
G1 E.8 F2100
M204 S1000
;TYPE:Skirt/Brim
;WIDTH:0.42
G1 F1200
G1 X94.462 Y75.451 E.0528
G1 X116.288 Y67.044 E.73335
G1 X116.922 Y66.895 E.0204
G1 X129.692 Y65.703 E.40214
G1 X130.41 Y65.745 E.02256
G1 X131.484 Y66.019 E.03476
G1 X132.357 Y66.408 E.02996
G1 X155.69 Y80.008 E.84678
G1 X156.701 Y81.181 E.04856
G1 X167.597 Y108.51 E.92247
G1 X167.766 Y109.34 E.02655
G1 X167.949 Y117.953 E.27012
G1 X167.75 Y119.544 E.05025
G1 X167.54 Y120.194 E.02142
G1 X167.214 Y120.836 E.02259
G1 X166.64 Y121.602 E.03002
G1 X165.969 Y122.283 E.02998
G1 X145.763 Y138.629 E.81486
G1 X144.188 Y139.477 E.0561
G1 X142.653 Y139.985 E.05072
G1 X141.223 Y140.174 E.04522
G1 X119.42 Y141.66 E.68519
G1 X117.489 Y141.689 E.06054
G1 X85.835 Y139.413 E.99508
G1 X84.559 Y138.928 E.04278
G1 X83.636 Y137.211 E.06113
G1 X82.055 Y115.007 E.69794
G1 X82.049 Y98.635 E.51334
G1 X82.317 Y97.539 E.03536
M73 P1 R30
M73 Q1 S30
G1 X93.179 Y76.626 E.73889
; printing object 10.stl id:10 copy 0
;WIPE_START
G1 F8640
G1 X94.462 Y75.451 E-.4018
G1 X95.91 Y74.893 E-.3582
;WIPE_END
G1 E-.04 F2100
G1 Z.6 F10800
G1 X155.964 Y116.808
G1 Z.2
G1 E.8 F2100
;TYPE:Perimeter
G1 F1200
G1 X156.328 Y116.502 E.01491
G1 X156.585 Y116.342 E.0095
G1 X156.91 Y116.209 E.011
G1 X157.232 Y116.114 E.01053
G1 X158.145 Y115.97 E.02896
G1 X159.045 Y115.896 E.02833
G1 X161.105 Y115.892 E.0646
G1 X161.976 Y115.958 E.02739
G1 X162.868 Y116.092 E.02828
G1 X163.359 Y116.244 E.01611
G1 X163.636 Y116.371 E.00955
G1 X163.887 Y116.533 E.00936
G1 X164.223 Y116.804 E.01354
G1 X164.416 Y117.102 E.01114
G1 X164.557 Y117.397 E.01028
G1 X164.644 Y117.835 E.01399
G1 X164.644 Y118.165 E.01035
G1 X164.579 Y118.542 E.01198
G1 X164.421 Y118.899 E.01225
G1 X164.224 Y119.202 E.01134
G1 X163.774 Y119.564 E.0181
G1 X163.426 Y119.742 E.01226
G1 X162.955 Y119.893 E.01551
G1 X162.044 Y120.037 E.02892
G1 X161.497 Y120.092 E.01725
G1 X160.784 Y120.121 E.02234
G1 X159.429 Y120.123 E.04251
G1 X158.741 Y120.098 E.02159
G1 X158.211 Y120.049 E.01668
G1 X157.333 Y119.917 E.02785
G1 X156.989 Y119.818 E.01122
G1 X156.64 Y119.68 E.01177
G1 X156.303 Y119.472 E.01242
G1 X155.964 Y119.195 E.01373
G1 X155.704 Y118.792 E.01503
G1 X155.581 Y118.457 E.0112
G1 X155.523 Y118.011 E.01408
G1 X155.556 Y117.691 E.01011
G1 X155.632 Y117.379 E.01006
G1 X155.774 Y117.091 E.01005
G1 X155.931 Y116.858 E.00882
G1 X156.248 Y117.062 F10800
;TYPE:External perimeter
G1 F1200
G1 X156.55 Y116.808 E.01238
G1 X156.757 Y116.679 E.00766
G1 X157.035 Y116.565 E.00942
G1 X157.315 Y116.482 E.00915
G1 X158.189 Y116.344 E.02774
G1 X159.063 Y116.273 E.02747
G1 X160.104 Y116.261 E.03266
G1 X161.089 Y116.269 E.03089
G1 X161.934 Y116.333 E.02656
G1 X162.784 Y116.46 E.02694
G1 X163.224 Y116.597 E.01444
G1 X163.454 Y116.702 E.00795
G1 X163.666 Y116.839 E.00789
G1 X163.939 Y117.059 E.01103
G1 X164.087 Y117.286 E.00848
G1 X164.197 Y117.517 E.00802
G1 X164.267 Y117.872 E.01135
G1 X164.267 Y118.133 E.00818
G1 X164.215 Y118.432 E.0095
G1 X164.088 Y118.719 E.00984
G1 X163.941 Y118.946 E.0085
G1 X163.568 Y119.246 E.015
G1 X163.282 Y119.393 E.01008
G1 X162.867 Y119.525 E.01364
G1 X161.995 Y119.663 E.02768
G1 X161.47 Y119.716 E.01656
G1 X160.777 Y119.744 E.02176
G1 X159.435 Y119.746 E.04206
G1 X158.765 Y119.722 E.02103
G1 X158.257 Y119.675 E.01601
G1 X157.413 Y119.548 E.02673
G1 X157.11 Y119.46 E.00989
G1 X156.809 Y119.342 E.01015
G1 X156.522 Y119.165 E.01056
G1 X156.249 Y118.941 E.01109
G1 X156.044 Y118.623 E.01186
G1 X155.95 Y118.366 E.00857
G1 X155.902 Y118.006 E.01137
G1 X155.929 Y117.756 E.00791
G1 X155.989 Y117.508 E.00797
G1 X156.101 Y117.281 E.00796
G1 X156.214 Y117.112 E.00636
G1 X156.134 Y116.684 F10800
;WIPE_START
G1 F8640
G1 X156.55 Y116.808 E-.10457
G1 X156.757 Y116.679 E-.05639
G1 X157.035 Y116.565 E-.06939
G1 X157.315 Y116.482 E-.06742
G1 X158.189 Y116.344 E-.20432
G1 X159.063 Y116.273 E-.20231
G1 X159.303 Y116.27 E-.0556
;WIPE_END
G1 E-.04 F2100
G1 Z.6 F10800
G1 X155.309 Y117.562
G1 Z.2
G1 E.8 F2100
;TYPE:Perimeter
G1 F1200
G1 X155.629 Y116.886 E.02343
G1 X155.738 Y116.716 E.00633
G1 X156.187 Y116.21 E.02122
G1 X157.166 Y115.726 E.03424
G1 X157.51 Y115.593 E.01155
G1 X157.851 Y115.492 E.01116
G1 X158.202 Y115.419 E.01125
G1 X158.707 Y115.355 E.01593
G1 X159.238 Y115.322 E.01668
G1 X160.076 Y115.305 E.02629
G1 X160.897 Y115.313 E.02577
G1 X161.42 Y115.34 E.01639
G1 X161.913 Y115.395 E.01557
G1 X162.381 Y115.489 E.01497
G1 X162.714 Y115.59 E.01088
G1 X163.048 Y115.718 E.01123
G1 X163.901 Y116.124 E.02961
G1 X164.324 Y116.573 E.01936
G1 X164.545 Y116.898 E.0123
G1 X164.678 Y117.278 E.01263
G1 X164.781 Y118.01 E.02319
G1 X164.741 Y118.427 E.01311
G1 X164.681 Y118.766 E.01079
G1 X164.592 Y119.038 E.00898
G1 X164.495 Y119.214 E.0063
G1 X164.243 Y119.536 E.01282
G1 X163.995 Y119.797 E.0113
G1 X163.014 Y120.281 E.03429
G1 X162.552 Y120.451 E.01544
G1 X162.087 Y120.568 E.01504
G1 X161.594 Y120.64 E.01562
G1 X160.933 Y120.686 E.02077
G1 X159.532 Y120.695 E.04394
G1 X158.719 Y120.654 E.02551
G1 X157.992 Y120.548 E.02303
G1 X157.409 Y120.376 E.01905
G1 X156.826 Y120.125 E.01991
G1 X156.2 Y119.804 E.02207
G1 X155.887 Y119.474 E.01425
G1 X155.741 Y119.291 E.00734
G1 X155.631 Y119.119 E.0064
G1 X155.31 Y118.44 E.02354
G1 X153.999 Y118.724 E.04206
G1 X153.999 Y119.656 E.0292
G1 X150.573 Y119.656 E.10741
G1 X150.573 Y109.064 E.3321
G1 X153.999 Y109.064 E.10741
G1 X153.999 Y117.277 E.25752
G1 X155.251 Y117.549 E.04016
;WIPE_START
G1 F8640
G1 X155.629 Y116.886 E-.17621
G1 X155.738 Y116.716 E-.0466
G1 X156.187 Y116.21 E-.15629
G1 X157.166 Y115.726 E-.25219
G1 X157.51 Y115.593 E-.08506
G1 X157.691 Y115.54 E-.04364
;WIPE_END
G1 E-.04 F2100
G1 Z.6 F10800
G1 X156.71 Y109.277
G1 Z.2
G1 E.8 F2100
G1 F1200
G1 X157.133 Y110.178 E.03121
G1 X164.602 Y110.178 E.23418
G1 X164.602 Y110.661 E.01517
G1 X154.6 Y110.661 E.3136
G1 X155.495 Y110.225 E.03121
G1 X155.884 Y109.993 E.01421
G1 X156.251 Y109.706 E.0146
G1 X156.568 Y109.396 E.0139
G1 X156.945 Y108.975 E.01772
G1 X157.432 Y108.289 E.02638
G1 X157.724 Y107.783 E.01831
G1 X157.841 Y107.519 E.00906
G1 X158.001 Y107.519 E.00501
G1 X157.793 Y107.89 E.01334
G1 X157.497 Y108.309 E.01607
G1 X156.747 Y109.23 E.03724
G1 X157.152 Y109.331 F10800
;TYPE:External perimeter
G1 F1200
G1 X157.373 Y109.8 E.01628
G1 X164.979 Y109.8 E.2385
G1 X164.979 Y111.039 E.03882
G1 X154.376 Y111.039 E.33245
G1 X154.376 Y116.973 E.18607
G1 X155.097 Y117.129 E.02312
G1 X155.299 Y116.703 E.01479
G1 X155.431 Y116.497 E.00769
G1 X155.596 Y116.288 E.00835
G1 X155.956 Y115.904 E.0165
G1 X156.651 Y115.546 E.02452
G1 X157.02 Y115.378 E.0127
G1 X157.388 Y115.236 E.01237
G1 X157.759 Y115.126 E.01212
G1 X158.14 Y115.047 E.01221
G1 X158.671 Y114.979 E.01678
G1 X159.222 Y114.945 E.01731
G1 X160.074 Y114.927 E.02672
G1 X160.909 Y114.936 E.02619
G1 X161.45 Y114.964 E.01699
G1 X161.971 Y115.022 E.01645
G1 X162.473 Y115.123 E.01605
G1 X162.836 Y115.233 E.01188
G1 X163.197 Y115.372 E.01212
G1 X164.127 Y115.814 E.03228
G1 X164.619 Y116.336 E.02252
G1 X164.875 Y116.713 E.01428
G1 X164.959 Y116.9 E.00642
G1 X165.045 Y117.19 E.00949
G1 X165.104 Y117.512 E.01027
G1 X165.16 Y118.007 E.01562
G1 X165.115 Y118.477 E.01481
G1 X165.048 Y118.858 E.01211
G1 X164.939 Y119.189 E.01093
G1 X164.811 Y119.422 E.00834
G1 X164.529 Y119.782 E.01434
G1 X164.224 Y120.103 E.01387
G1 X163.527 Y120.462 E.0246
G1 X163.158 Y120.629 E.0127
G1 X162.664 Y120.812 E.01651
G1 X162.16 Y120.938 E.01627
G1 X161.635 Y121.015 E.01666
G1 X160.947 Y121.063 E.0216
G1 X159.524 Y121.072 E.04465
G1 X158.688 Y121.03 E.02623
G1 X158.29 Y120.984 E.01256
G1 X157.906 Y120.915 E.01225
G1 X157.281 Y120.732 E.0204
G1 X156.665 Y120.467 E.02103
G1 X155.97 Y120.11 E.0245
G1 X155.603 Y119.721 E.01677
G1 X155.434 Y119.511 E.00846
G1 X155.3 Y119.302 E.00778
G1 X155.097 Y118.872 E.0149
G1 X154.376 Y119.028 E.02313
G1 X154.376 Y120.033 E.03149
G1 X150.196 Y120.033 E.13106
G1 X150.196 Y108.687 E.35575
G1 X154.376 Y108.687 E.13106
G1 X154.376 Y110.351 E.05219
G1 X155.315 Y109.893 E.03276
G1 X155.671 Y109.681 E.01298
G1 X156.003 Y109.422 E.01319
G1 X156.295 Y109.136 E.01284
G1 X156.649 Y108.739 E.01667
G1 X157.115 Y108.085 E.02516
G1 X157.387 Y107.612 E.01713
G1 X157.596 Y107.142 E.01613
G1 X158.584 Y107.142 E.03098
G1 X158.374 Y107.625 E.01653
G1 X158.112 Y108.092 E.01677
G1 X157.797 Y108.537 E.01709
G1 X157.19 Y109.284 E.03021
G1 X156.821 Y109.556 F10800
;WIPE_START
G1 F8640
G1 X157.373 Y109.8 E-.1265
G1 X160.116 Y109.8 E-.6335
;WIPE_END
G1 E-.04 F2100
G1 Z.6 F10800
G1 X156.245 Y109.854
G1 Z.2
G1 E.8 F2100
;TYPE:Solid infill
;WIDTH:0.448292
G1 F1200
G1 X156.926 Y110.535 E.03244
G1 X157.039 Y110.419 F10800
;TYPE:Gap fill
;WIDTH:0.14979
G1 F1200
G1 X164.414 Y110.419 E.06553
;WIPE_START
G1 F8640
G1 X161.122 Y110.419 E-.76
;WIPE_END
G1 E-.04 F2100
G1 Z.6 F10800
G1 X157.388 Y120.138
G1 Z.2
G1 E.8 F2100
;WIDTH:0.112835
G1 F1200
G1 X157.485 Y120.166 E.00059
;WIDTH:0.152282
G1 X157.769 Y120.228 E.00264
;WIDTH:0.191729
G1 X158.053 Y120.291 E.0036
;WIDTH:0.195297
G1 X158.177 Y120.312 E.00159
;WIDTH:0.195545
G1 X158.181 Y120.312 E.00006
;WIDTH:0.213114
G1 X158.385 Y120.34 E.00291
;WIDTH:0.220561
G1 X158.72 Y120.375 E.00498
;WIDTH:0.220818
G1 X158.726 Y120.376 E.00008
;WIDTH:0.222134
G1 X158.742 Y120.377 E.00025
;WIDTH:0.232061
G1 X159.422 Y120.406 E.01071
;WIDTH:0.232177
G1 X159.426 Y120.406 E.00006
;WIDTH:0.237987
G1 X159.538 Y120.409 E.00182
;WIDTH:0.237986
G1 X160.789 Y120.404 E.02028
;WIDTH:0.23185
G1 X160.792 Y120.404 E.00006
;WIDTH:0.236261
G1 X160.922 Y120.401 E.00209
;WIDTH:0.23626
G1 X161.513 Y120.368 E.00951
;WIDTH:0.219347
G1 X161.519 Y120.368 E.00008
;WIDTH:0.220773
G1 X161.564 Y120.364 E.00068
;WIDTH:0.220774
G1 X162.035 Y120.306 E.00702
;WIDTH:0.198829
G1 X162.076 Y120.299 E.00053
;WIDTH:0.192916
G1 X162.08 Y120.298 E.00005
;WIDTH:0.192416
G1 X162.48 Y120.217 E.00508
;WIDTH:0.156886
G1 X162.648 Y120.172 E.00165
;WIDTH:0.125104
G1 X162.817 Y120.128 E.00119
;WIPE_START
G1 F8640
G1 X162.648 Y120.172 E-.04021
;WIPE_END
G1 E-.75979 F2100
G1 Z.6 F10800
G1 X162.88 Y115.88
G1 Z.2
G1 E.8 F2100
;WIDTH:0.142938
G1 F1200
G1 X162.636 Y115.816 E.0021
;WIDTH:0.190237
G1 X162.317 Y115.744 E.004
;WIDTH:0.205795
G1 X162.009 Y115.69 E.00423
;WIDTH:0.20632
G1 X162.003 Y115.689 E.00008
;WIDTH:0.222959
G1 X161.87 Y115.67 E.00201
;WIDTH:0.240383
G1 X161.396 Y115.626 E.00781
;WIDTH:0.240385
G1 X161.12 Y115.609 E.00454
;WIDTH:0.233721
G1 X161.114 Y115.609 E.0001
;WIDTH:0.243123
G1 X160.889 Y115.602 E.00375
;WIDTH:0.244543
G1 X160.104 Y115.594 E.01315
;WIDTH:0.244568
G1 X160.102 Y115.594 E.00004
;WIDTH:0.245136
G1 X160.077 Y115.594 E.00042
;WIDTH:0.245137
G1 X159.249 Y115.608 E.01392
;WIDTH:0.238104
G1 X159.035 Y115.616 E.00348
;WIDTH:0.227294
G1 X159.029 Y115.616 E.0001
;WIDTH:0.23282
G1 X158.733 Y115.637 E.00468
;WIDTH:0.23282
G1 X158.247 Y115.688 E.00771
;WIDTH:0.21073
G1 X158.116 Y115.707 E.00185
;WIDTH:0.194334
G1 X158.11 Y115.708 E.00007
;WIDTH:0.193844
G1 X157.914 Y115.744 E.0025
;WIDTH:0.184234
G1 X157.586 Y115.818 E.00395
;WIDTH:0.140018
G1 X157.348 Y115.882 E.00199
;WIPE_START
G1 F8640
G1 X157.586 Y115.818 E-.05692
;WIPE_END
G1 E-.74308 F2100
G1 Z.6 F10800
G1 X155.944 Y110.343
G1 Z.2
G1 E.8 F2100
;WIDTH:0.131558
G1 F1200
G1 X155.501 Y110.456 E.00337
;WIPE_START
G1 F8640
G1 X155.944 Y110.343 E-.10568
;WIPE_END
G1 E-.69432 F2100
G1 Z.6 F10800
G1 X153.886 Y109.958
G1 Z.2
G1 E.8 F2100
;TYPE:Solid infill
;WIDTH:0.428739
G1 F1200
G1 X153.275 Y109.346 E.02773
G1 X152.729 Y109.346 E.0175
G1 X153.716 Y110.334 E.04478
G1 X153.716 Y110.879 E.0175
G1 X152.184 Y109.346 E.06954
G1 X151.638 Y109.346 E.0175
G1 X153.716 Y111.425 E.09429
G1 X153.716 Y111.97 E.0175
G1 X151.092 Y109.346 E.11905
G1 X150.856 Y109.346 E.00758
G1 X150.856 Y109.656 E.00992
G1 X153.716 Y112.516 E.12977
G1 X153.716 Y113.062 E.0175
G1 X150.856 Y110.201 E.12977
M73 Q2 S30
G1 X150.856 Y110.747 E.0175
G1 X153.716 Y113.607 E.12977
G1 X153.716 Y114.153 E.0175
M73 P2 R30
G1 X150.856 Y111.293 E.12977
G1 X150.856 Y111.838 E.0175
G1 X153.716 Y114.699 E.12977
G1 X153.716 Y115.244 E.0175
G1 X150.856 Y112.384 E.12977
G1 X150.856 Y112.93 E.0175
G1 X153.716 Y115.79 E.12977
G1 X153.716 Y116.335 E.0175
G1 X150.856 Y113.475 E.12977
G1 X150.856 Y114.021 E.0175
G1 X153.886 Y117.051 E.13747
;WIPE_START
G1 F8640
G1 X151.559 Y114.723 E-.76
;WIPE_END
G1 E-.04 F2100
G1 Z.6 F10800
G1 X154.988 Y117.608
G1 Z.2
G1 E.8 F2100
G1 F1200
G1 X155.253 Y117.872 E.012
G1 X155.238 Y118.015 E.00462
G1 X155.257 Y118.162 E.00476
